X:1
T:Title
%%score { 1 | 2 }
L:1/8
M:4/4
K:Ab
V:1 treble nm="Grand Piano"
V:2 bass 
V:1
 z4 z2[Q:1/4=100] [CE]>[B,D] | [A,C]2 [B,D]2 [CE]2 [CA]2 | [Ec]4 [EA]2 [_GA]>[GA] | %3
 [FA]3 [EG] F2 A2 |[M:3/4] E6 |[M:1/4] C[B,D] |[M:4/4] [CE]2 [CA]2 [DB]2 [_Gc]2 | %7
 [Fe]2 [Fd]4 [FA][FB] | c3 c d2 G2 |[M:3/4] [CA]6 |] %10
V:2
 z4 z2 [A,,A,]>[A,,E,] | [A,,E,]2 [A,,A,]2 [A,,A,]2 [A,,E,]2 | [A,,A,]4 [C,A,]2 [C,A,]>[C,A,] | %3
 [D,A,]3 [D,A,] [D,A,D]2 [F,A,D]2 |[M:3/4] [A,C]6 |[M:1/4] [A,,A,][A,,A,] | %6
[M:4/4] [A,,A,]2 [_G,A,]2 [F,A,]2 [E,A,]2 | [D,A,]2 [D,A,]4 [D,A,][D,A,] | %8
 [E,A,E]3 [E,A,E] [E,G,E]2 [E,D]2 |[M:3/4] [A,,E,]6 |] %10

